X:117
T:Elizabeth II
C:Lillian Miller
B:SDA #117
%
P:the Lass o' Gowrie
R: reel, march
B:RSCDS Graded 1 #9
B:RSCDS Originally Ours p.146
B:Kerr, Merrie Melodies v.3 p.24 #377
Z:1997 by John Chambers <jc:trillian.mit.edu>
M:2/4
L:1/8
K:D
A/G/ \
| "D"FA Ac | d>e dc \
| "G"B>A Bd | "A"e>f eA/G/ \
| "D"FA Ac | "Bm"d>e fe \
| "G"dB "D"Af | "A7"e2 "D"d |]
d/e/ \
| "D"fa de | f>g "(B7)"ag/f/ \
| "Em"gb ef | "A7"g>a ba/g/ \
| "D"fa "A7"ef | "Bm"d>e fe \
| "G"dB "D"Af | "A7"e2 "D"d |]
%
P: Oh Gin I Were Where The Gadie Rins
R: reel, march
Z: 1999 John Chambers <jc:trillian.mit.edu>
M: C|
L: 1/4
K: D
d/B/ \
| "D"AA/B/ dd/e/ | ff fe/d/ | "D"ff fe/d/ | "G"ee/f/ "A7"e/d/B/d/ \
| "D"AA/B/ A/B/d/e/ | ff fe/d/ | "A7"aA AB/c/ | "D"d3 :|
|: B \
| "D"AF FA | "A7"GE EG | "D"FD FA | d/c/d/f/ "A"e/d/c/B/ \
| "D"AF FA | "A7"GE EA/G/ | "D"FD "A7"FA | "D"d3 :|
